svgs/hoplr.svg

<svg xmlns="http://www.w3.org/2000/svg" viewBox="0 0 192 192"><path d="M49.806 173.121c-7.652-3.146-14.67-9.261-18.87-16.442-4.634-7.925-5.531-16.408-5.025-47.559.664-40.937.749-41.113 33.813-69.986 11.629-10.156 23.102-19.521 25.493-20.811 5.558-2.997 15.684-3.112 21.35-.242 6.51 3.298 47.074 39.533 51.286 45.813 6.914 10.309 7.713 14.758 8.233 45.879.512 30.6-.382 38.991-5.007 46.973-4.088 7.056-12.208 13.947-19.769 16.776-6.345 2.374-8.703 2.502-45.633 2.475-38.523-.027-39.016-.058-45.871-2.876Zm84.937-19.667c2.872-1.451 6.413-4.431 7.869-6.622 2.57-3.866 2.648-4.833 2.636-32.83-.015-38.825 1.849-35.084-31.809-63.842-8.795-7.515-16.636-13.663-17.424-13.663-1.363 0-27.647 21.915-38.538 32.13-2.816 2.642-6.372 7.442-7.903 10.666-2.692 5.674-2.782 6.793-2.793 34.709-.011 27.997.066 28.964 2.636 32.83 1.456 2.191 4.997 5.171 7.87 6.622 5.052 2.553 6.31 2.639 38.728 2.639 32.417 0 33.675-.086 38.728-2.639Z"/></svg>

<svg
    xmlns="http://www.w3.org/2000/svg"
    viewBox="0 0 192 192"
    id="vector">
    <g id="group">
        <path
            id="path_6"
            d="M 49.806 173.121 C 42.154 169.975 35.136 163.86 30.936 156.679 C 26.302 148.754 25.405 140.271 25.911 109.12 C 26.575 68.183 26.66 68.007 59.724 39.134 C 71.353 28.978 82.826 19.613 85.217 18.323 C 90.775 15.326 100.901 15.211 106.567 18.081 C 113.077 21.379 153.641 57.614 157.853 63.894 C 164.767 74.203 165.566 78.652 166.086 109.773 C 166.598 140.373 165.704 148.764 161.079 156.746 C 156.991 163.802 148.871 170.693 141.31 173.522 C 134.965 175.896 132.607 176.024 95.677 175.997 C 57.154 175.97 56.661 175.939 49.806 173.121 Z M 134.743 153.454 C 137.615 152.003 141.156 149.023 142.612 146.832 C 145.182 142.966 145.26 141.999 145.248 114.002 C 145.233 75.177 147.097 78.918 113.439 50.16 C 104.644 42.645 96.803 36.497 96.015 36.497 C 94.652 36.497 68.368 58.412 57.477 68.627 C 54.661 71.269 51.105 76.069 49.574 79.293 C 46.882 84.967 46.792 86.086 46.781 114.002 C 46.77 141.999 46.847 142.966 49.417 146.832 C 50.873 149.023 54.414 152.003 57.287 153.454 C 62.339 156.007 63.597 156.093 96.015 156.093 C 128.432 156.093 129.69 156.007 134.743 153.454 Z"
            fill="#000000"
            stroke-width="12"/>
    </g>
</svg>
